X:1
T: Cock your Pistol Charley
T: 1st setting
R:Jig
Q:180
K:C
M:6/8
L:1/16
|:E4A2 A4B2|c4d2 e4c2|d4B2 c4A2|G4E2 E4D2|
E4A2 A4B2|c4d2 e4f2|g4e2 d4B2|1B4A2 A6:|2B4A2 A4(3efg|
a4g2 e4g2|a4g2 e4f2|g4e2 d4f2|g4a2 b4g2|
a4g2 e4g2|a4g2 e4f2|g4e2 d4B2|B4A2 A4(3efg|
a4g2 e4g2|a4g2 e4f2|g4e2 d4f2|g4a2 b4f2|
g4a2 b4g2|a4g2 e4f2|g4e2 d4B2|B4A2 A6||
